X:1
T:Title
%%score { 1 | 2 }
L:1/8
M:4/4
K:A
V:1 treble nm="Grand Piano"
V:2 bass 
V:1
 z4 z2[Q:1/4=96] [A,C][B,D] | [CE][=C^D][^CE][=DF] [CE]2 [CA]2 | [Ec]2 [DB]2 [CA]2 [CG][CA] | %3
 BAGF [FA]2 [DF]2 | [CE]6 GA | B^ABc B2 E2 | [EA]2 [EB]2 [Ec]2 [CA][CG] | %7
 [^DF][D^E][DF][DG] [DA]2 [DF]2 |[M:3/4] [DB]6 |[M:1/4] [CA][DB] | %10
[M:4/4] [Ec][^D=c][E^c][Fd] [Ec]2 [=DB]2 | [CA]2 [Ec]2- [Ec][Ec][EB][EA] | G2 .B2 E2 .B2 | %13
[M:11/8] e3 c-c-c- c3 C[B,D] |[M:4/4] [CE][CF][EG][CA] [DB]2 [Ec]2 | [=Ge]2 [Fd]4 [FA][^EB] | %16
 c=c^cd c2 A2[Q:1/4=95][Q:1/4=93][Q:1/4=92][Q:1/4=90][Q:1/4=89][Q:1/4=88][Q:1/4=86][Q:1/4=85][Q:1/4=83][Q:1/4=82][Q:1/4=80][Q:1/4=79][Q:1/4=78][Q:1/4=76][Q:1/4=75][Q:1/4=73] | %17
 B4 [CEA]4 |] %18
V:2
 z4 z2 [A,,E,][A,,E,] | [A,,A,][A,,A,][A,,A,][A,,A,] [A,,A,]2 [A,,E,]2 | %2
 [A,,A,]2 [A,,F,]2 [A,,E,]2 [A,,E,][A,,E,] | [D,F,D][D,F,D][D,G,D][D,A,D] [D,D]2 [D,A,]2 | %4
 [A,,A,]6 [E,B,D][E,A,C] | [E,G,D][E,=G,C][E,^G,D][E,G,E] [E,G,D]2 [D,B,]2 | %6
 [C,A,]2 [B,,G,]2 [A,,A,]2 [A,,A,][A,,A,] | [B,,A,][B,,G,][B,,A,][B,,G,] [B,,F,]2 [B,,A,]2 | %8
[M:3/4] [E,G,]6 |[M:1/4] [A,,A,][A,,A,] |[M:4/4] [A,,A,][A,,A,][A,,A,][A,,A,] [A,,A,]2 [A,,F,]2 | %11
 [A,,E,]2 [A,,A,]2- [A,,A,][A,,A,][B,,G,][C,A,] | [E,B,D]2 .[E,G,D]2 [E,B,D]2 .[E,DE]2 | %13
[M:11/8] [A,CE]3 [A,E]-[A,E]-[A,E]- [A,E]3 [A,,E,A,][A,,E,] | %14
[M:4/4] [A,,A,][A,,A,][A,,E,][A,,E,] [A,,E,]2 [A,,E,]2 | [C,A,]2 [D,A,]4 [D,A,][D,A,] | %16
 [E,A,E][E,A,^D][E,A,E][E,A,F] [E,A,E]2 [E,CE]2 | [E,DE]4 A,,4 |] %18

